static/assets/template/assets/img/icons/essential/detailed/Delivery.svg

<svg height="93" viewBox="0 0 151 93" width="151" xmlns="http://www.w3.org/2000/svg"><g fill="none" fill-rule="evenodd" transform="translate(2 2)"><path d="m43.1 79.3h-12.6c-.5 0-.9-.4-.9-.9l1.3-5.3c0-.5.4-.9.9-.9h14 88.6 8.4c.5 0 .9.4.9.9l-2.2 5.3c0 .5-.4.9-.9.9h-3.4z" fill-rule="nonzero"/><path d="m110.1 72.3 7.6-44.3c.2-1.1 1.1-1.8 2.2-1.8h17.1c2.2 0 4.1 1.4 4.8 3.5l5.2 16.2c.5 1.6.5 3.3.1 4.9l-6.1 21.5" fill-rule="nonzero"/><g stroke-linecap="round" stroke-linejoin="round" stroke-width="3" transform="translate(0 89)"><path d="m1.2.3h-.9"/><path d="m27.9.3h-22.9"/><path d="m32.8.3h-.9"/><path d="m108.6.3h-70.8"/><path d="m141.6.3h-29"/><path d="m146.7.3h-1.4"/></g><circle cx="123.9" cy="80.7" fill-rule="nonzero" r="8.2" stroke-linecap="round" stroke-linejoin="round" stroke-width="3"/><path d="m112.7 57.2 5-29.2c.2-1.1 1.1-1.8 2.2-1.8h17.1c2.2 0 4.1 1.4 4.8 3.5l5.2 16.2c.5 1.6.5 3.3.1 4.9l-6.1 21.5" stroke-linecap="round" stroke-linejoin="round" stroke-width="3"/><path d="m111.2 65.9.6-3.2" stroke-linecap="round" stroke-linejoin="round" stroke-width="3"/><path d="m43.1 79.3h-12.6c-.5 0-.9-.4-.9-.9l1.3-5.3c0-.5.4-.9.9-.9h14" stroke-linecap="round" stroke-linejoin="round" stroke-width="3"/><path d="m110.3 79.3h-40.3" stroke-linecap="round" stroke-linejoin="round" stroke-width="3"/><path d="m134.5 72.3h8.4c.5 0 .9.4.9.9l-2.2 5.3c0 .5-.4.9-.9.9h-3.4" stroke-linecap="round" stroke-linejoin="round" stroke-width="3"/><path d="m67.2 72.3h45.9" stroke-linecap="round" stroke-linejoin="round" stroke-width="3"/><path d="m42 20.3.5-2.8c.2-1.1 1.1-1.8 2.2-1.8h8.8 49.7 6.3c.7 0 1.3.3 1.7.8s.6 1.2.5 1.8l-8.9 46.3c-.2 1-1.1 1.8-2.2 1.8h-63.8c-.7 0-1.3-.3-1.7-.8s-.6-1.2-.5-1.8l1.6-9.3z" fill-rule="nonzero"/><path d="m46 23 .4-2.7c.2-1 1-1.7 2.1-1.7h8.3 46.9 6c.6 0 1.2.3 1.6.8s.6 1.1.4 1.7l-8.4 43.6c-.2 1-1 1.7-2 1.7h-60.1c-.6 0-1.2-.3-1.6-.7s-.6-1.1-.5-1.7l1.5-8.8z" fill-rule="nonzero"/><g stroke-linecap="round" stroke-linejoin="round" stroke-width="3"><path d="m37.7 45.9.8-5"/><path d="m103.2 15.6h6.3c.7 0 1.3.3 1.7.8s.6 1.2.5 1.8l-8.9 46.3c-.2 1-1.1 1.8-2.2 1.8h-63.8c-.7 0-1.3-.3-1.7-.8s-.6-1.2-.5-1.8l1.6-9.3"/><path d="m65.3 59.9h-4.5"/><path d="m99.3 48.8-1.8 9.2c-.2 1-1.1 1.8-2.2 1.8h-23.7"/><path d="m42 20.3.5-2.8c.2-1.1 1.1-1.8 2.2-1.8h8.8"/><path d="m39.9 32.8.9-5.3"/><path d="m40.8 27.2h9.7"/><path d="m22.4 27.2h18.4"/><path d="m62.2.2h16.7"/><path d="m54 .2h2.2"/><path d="m38.6 40.7h8.6"/><path d="m35.4 40.7h3.2"/><path d="m23.5 40.7h6.8"/><circle cx="56.5" cy="80.7" fill-rule="nonzero" r="8.2"/><circle cx="56.5" cy="80.7" fill-rule="nonzero" r="3.9"/><circle cx="123.9" cy="80.7" fill-rule="nonzero" r="3.9"/><path d="m29.4 54.4h14.4"/><path d="m147.2 50.3h-24.9l2.4-17.5h18.1"/><path d="m122.3 57.3h5.5"/></g><circle cx="78.7" cy="20.9" fill-rule="nonzero" r="20.7"/><circle cx="78.5" cy="24.6" fill="#5ea6ff" fill-rule="nonzero" r="22.5"/><circle cx="78.7" cy="20.9" fill-rule="nonzero" r="20.7"/><path d="m66 4.6c3.5-2.7 7.9-4.4 12.7-4.4 11.4 0 20.7 9.2 20.7 20.7 0 11.4-9.2 20.7-20.7 20.7s-20.7-9.2-20.7-20.7c0-3.1.7-6 1.9-8.6" stroke-linecap="round" stroke-linejoin="round" stroke-width="3"/><path d="m63 7.4c.1-.1.1-.1.2-.2" stroke-linecap="round" stroke-linejoin="round" stroke-width="3"/><path d="m94.7 24.3c-1.2 5.9-5.6 10.7-11.4 12.4" stroke-linecap="round" stroke-linejoin="round" stroke-width="3"/><path d="m78.7 7.7v-3.1c9 0 16.4 7.3 16.4 16.4h-2.8" stroke-linecap="round" stroke-linejoin="round" stroke-width="3"/><path d="m62.8 17.1c1.5-6 6.3-10.7 12.3-12.1" stroke-linecap="round" stroke-linejoin="round" stroke-width="3"/><path d="m70.1 26.7 8.8-5v-8.6" stroke-linecap="round" stroke-linejoin="round" stroke-width="3"/><path d="m65 20.9h-2.7c0 9 7.3 16.4 16.4 16.4v-2.9" stroke-linecap="round" stroke-linejoin="round" stroke-width="3"/><path d="m130.5 40.5 4.5 4.5" stroke-linecap="round" stroke-linejoin="round" stroke-width="3"/><path d="m128 37.9.7.7" stroke-linecap="round" stroke-linejoin="round" stroke-width="3"/><path d="m136.1 41.6 3.4 3.4" stroke-linecap="round" stroke-linejoin="round" stroke-width="3"/></g></svg>

<?xml version="1.0" encoding="UTF-8"?>
<svg width="151px" height="93px" viewBox="0 0 151 93" version="1.1" xmlns="http://www.w3.org/2000/svg" xmlns:xlink="http://www.w3.org/1999/xlink">
    <!-- Generator: Sketch 51.2 (57519) - http://www.bohemiancoding.com/sketch -->
    <title>Delivery</title>
    <desc>Created with Sketch.</desc>
    <defs></defs>
    <g id="Page-1" stroke="none" stroke-width="1" fill="none" fill-rule="evenodd">
        <g id="Delivery" transform="translate(2.000000, 2.000000)">
            <path d="M43.1,79.3 L30.5,79.3 C30,79.3 29.6,78.9 29.6,78.4 L30.9,73.1 C30.9,72.6 31.3,72.2 31.8,72.2 L45.8,72.2 L134.4,72.2 L142.8,72.2 C143.3,72.2 143.7,72.6 143.7,73.1 L141.5,78.4 C141.5,78.9 141.1,79.3 140.6,79.3 L137.2,79.3 L43.1,79.3 Z" id="Shape" class="fill-primary-100" fill-rule="nonzero"></path>
            <path d="M110.1,72.3 L117.7,28 C117.9,26.9 118.8,26.2 119.9,26.2 L137,26.2 C139.2,26.2 141.1,27.6 141.8,29.7 L147,45.9 C147.5,47.5 147.5,49.2 147.1,50.8 L141,72.3" id="Shape" class="fill-primary-100" fill-rule="nonzero"></path>
            <g id="Group" transform="translate(0.000000, 89.000000)" class="stroke-primary-300" stroke-linecap="round" stroke-linejoin="round" stroke-width="3">
                <path d="M1.2,0.3 L0.3,0.3" id="Shape"></path>
                <path d="M27.9,0.3 L5,0.3" id="Shape"></path>
                <path d="M32.8,0.3 L31.9,0.3" id="Shape"></path>
                <path d="M108.6,0.3 L37.8,0.3" id="Shape"></path>
                <path d="M141.6,0.3 L112.6,0.3" id="Shape"></path>
                <path d="M146.7,0.3 L145.3,0.3" id="Shape"></path>
            </g>
            <circle id="Oval" stroke-width="3" class="stroke-primary fill-primary-400" fill-rule="nonzero" stroke-linecap="round" stroke-linejoin="round" cx="123.9" cy="80.7" r="8.2"></circle>
            <path d="M112.7,57.2 L117.7,28 C117.9,26.9 118.8,26.2 119.9,26.2 L137,26.2 C139.2,26.2 141.1,27.6 141.8,29.7 L147,45.9 C147.5,47.5 147.5,49.2 147.1,50.8 L141,72.3" id="Shape" class="stroke-primary" stroke-width="3" stroke-linecap="round" stroke-linejoin="round"></path>
            <path d="M111.2,65.9 L111.8,62.7" id="Shape" class="stroke-primary" stroke-width="3" stroke-linecap="round" stroke-linejoin="round"></path>
            <path d="M43.1,79.3 L30.5,79.3 C30,79.3 29.6,78.9 29.6,78.4 L30.9,73.1 C30.9,72.6 31.3,72.2 31.8,72.2 L45.8,72.2" id="Shape" class="stroke-primary" stroke-width="3" stroke-linecap="round" stroke-linejoin="round"></path>
            <path d="M110.3,79.3 L70,79.3" id="Shape" class="stroke-primary" stroke-width="3" stroke-linecap="round" stroke-linejoin="round"></path>
            <path d="M134.5,72.3 L142.9,72.3 C143.4,72.3 143.8,72.7 143.8,73.2 L141.6,78.5 C141.6,79 141.2,79.4 140.7,79.4 L137.3,79.4" id="Shape" class="stroke-primary" stroke-width="3" stroke-linecap="round" stroke-linejoin="round"></path>
            <path d="M67.2,72.3 L113.1,72.3" id="Shape" class="stroke-primary" stroke-width="3" stroke-linecap="round" stroke-linejoin="round"></path>
            <path d="M42,20.3 L42.5,17.5 C42.7,16.4 43.6,15.7 44.7,15.7 L53.5,15.7 L103.2,15.7 L109.5,15.7 C110.2,15.7 110.8,16 111.2,16.5 C111.6,17 111.8,17.7 111.7,18.3 L102.8,64.6 C102.6,65.6 101.7,66.4 100.6,66.4 L36.8,66.4 C36.1,66.4 35.5,66.1 35.1,65.6 C34.7,65.1 34.5,64.4 34.6,63.8 L36.2,54.5 L42,20.3 Z" id="Shape" class="fill-neutral" fill-rule="nonzero"></path>
            <path d="M46,23 L46.4,20.3 C46.6,19.3 47.4,18.6 48.5,18.6 L56.8,18.6 L103.7,18.6 L109.7,18.6 C110.3,18.6 110.9,18.9 111.3,19.4 C111.7,19.9 111.9,20.5 111.7,21.1 L103.3,64.7 C103.1,65.7 102.3,66.4 101.3,66.4 L41.2,66.4 C40.6,66.4 40,66.1 39.6,65.7 C39.2,65.3 39,64.6 39.1,64 L40.6,55.2 L46,23 Z" id="Shape" class="fill-primary-400" fill-rule="nonzero"></path>
            <path d="M37.7,45.9 L38.5,40.9" id="Shape" class="stroke-primary" stroke-width="3" stroke-linecap="round" stroke-linejoin="round"></path>
            <path d="M103.2,15.6 L109.5,15.6 C110.2,15.6 110.8,15.9 111.2,16.4 C111.6,16.9 111.8,17.6 111.7,18.2 L102.8,64.5 C102.6,65.5 101.7,66.3 100.6,66.3 L36.8,66.3 C36.1,66.3 35.5,66 35.1,65.5 C34.7,65 34.5,64.3 34.6,63.7 L36.2,54.4" id="Shape" class="stroke-primary" stroke-width="3" stroke-linecap="round" stroke-linejoin="round"></path>
            <path d="M65.3,59.9 L60.8,59.9" id="Shape" class="stroke-primary" stroke-width="3" stroke-linecap="round" stroke-linejoin="round"></path>
            <path d="M99.3,48.8 L97.5,58 C97.3,59 96.4,59.8 95.3,59.8 L71.6,59.8" id="Shape" class="stroke-primary" stroke-width="3" stroke-linecap="round" stroke-linejoin="round"></path>
            <path d="M42,20.3 L42.5,17.5 C42.7,16.4 43.6,15.7 44.7,15.7 L53.5,15.7" id="Shape" class="stroke-primary" stroke-width="3" stroke-linecap="round" stroke-linejoin="round"></path>
            <path d="M39.9,32.8 L40.8,27.5" id="Shape" class="stroke-primary" stroke-width="3" stroke-linecap="round" stroke-linejoin="round"></path>
            <path d="M40.8,27.2 L50.5,27.2" id="Shape" class="stroke-primary" stroke-width="3" stroke-linecap="round" stroke-linejoin="round"></path>
            <path d="M22.4,27.2 L40.8,27.2" id="Shape" class="stroke-primary" stroke-width="3" stroke-linecap="round" stroke-linejoin="round"></path>
            <path d="M62.2,0.2 L78.9,0.2" id="Shape" class="stroke-primary" stroke-width="3" stroke-linecap="round" stroke-linejoin="round"></path>
            <path d="M54,0.2 L56.2,0.2" id="Shape" class="stroke-primary" stroke-width="3" stroke-linecap="round" stroke-linejoin="round"></path>
            <path d="M38.6,40.7 L47.2,40.7" id="Shape" class="stroke-primary" stroke-width="3" stroke-linecap="round" stroke-linejoin="round"></path>
            <path d="M35.4,40.7 L38.6,40.7" id="Shape" class="stroke-primary" stroke-width="3" stroke-linecap="round" stroke-linejoin="round"></path>
            <path d="M23.5,40.7 L30.3,40.7" id="Shape" class="stroke-primary" stroke-width="3" stroke-linecap="round" stroke-linejoin="round"></path>
            <circle id="Oval" stroke-width="3" class="stroke-primary fill-primary-400" fill-rule="nonzero" stroke-linecap="round" stroke-linejoin="round" cx="56.5" cy="80.7" r="8.2"></circle>
            <circle id="Oval" stroke-width="3" class="stroke-primary fill-primary-100" fill-rule="nonzero" stroke-linecap="round" stroke-linejoin="round" cx="56.5" cy="80.7" r="3.9"></circle>
            <circle id="Oval" stroke-width="3" class="stroke-primary fill-primary-100" fill-rule="nonzero" stroke-linecap="round" stroke-linejoin="round" cx="123.9" cy="80.7" r="3.9"></circle>
            <path d="M29.4,54.4 L43.8,54.4" id="Shape" class="stroke-primary" stroke-width="3" stroke-linecap="round" stroke-linejoin="round"></path>
            <polyline id="Shape" class="stroke-primary" stroke-width="3" stroke-linecap="round" stroke-linejoin="round" points="147.2 50.3 122.3 50.3 124.7 32.8 142.8 32.8"></polyline>
            <path d="M122.3,57.3 L127.8,57.3" id="Shape" class="stroke-primary" stroke-width="3" stroke-linecap="round" stroke-linejoin="round"></path>
            <circle id="Oval" class="fill-neutral" fill-rule="nonzero" cx="78.7" cy="20.9" r="20.7"></circle>
            <circle id="Oval" fill="#5EA6FF" fill-rule="nonzero" cx="78.5" cy="24.6" r="22.5"></circle>
            <circle id="Oval" class="fill-neutral" fill-rule="nonzero" cx="78.7" cy="20.9" r="20.7"></circle>
            <path d="M66,4.6 C69.5,1.9 73.9,0.2 78.7,0.2 C90.1,0.2 99.4,9.4 99.4,20.9 C99.4,32.3 90.2,41.6 78.7,41.6 C67.2,41.6 58,32.4 58,20.9 C58,17.8 58.7,14.9 59.9,12.3" id="Shape" class="stroke-primary" stroke-width="3" stroke-linecap="round" stroke-linejoin="round"></path>
            <path d="M63,7.4 C63.1,7.3 63.1,7.3 63.2,7.2" id="Shape" class="stroke-primary" stroke-width="3" stroke-linecap="round" stroke-linejoin="round"></path>
            <path d="M94.7,24.3 C93.5,30.2 89.1,35 83.3,36.7" id="Shape" class="stroke-primary" stroke-width="3" stroke-linecap="round" stroke-linejoin="round"></path>
            <path d="M78.7,7.7 L78.7,4.6 C87.7,4.6 95.1,11.9 95.1,21 L92.3,21" id="Shape" class="stroke-primary" stroke-width="3" stroke-linecap="round" stroke-linejoin="round"></path>
            <path d="M62.8,17.1 C64.3,11.1 69.1,6.4 75.1,5" id="Shape" class="stroke-primary" stroke-width="3" stroke-linecap="round" stroke-linejoin="round"></path>
            <polyline id="Shape" class="stroke-primary" stroke-width="3" stroke-linecap="round" stroke-linejoin="round" points="70.1 26.7 78.9 21.7 78.9 13.1"></polyline>
            <path d="M65,20.9 L62.3,20.9 C62.3,29.9 69.6,37.3 78.7,37.3 L78.7,34.4" id="Shape" class="stroke-primary" stroke-width="3" stroke-linecap="round" stroke-linejoin="round"></path>
            <path d="M130.5,40.5 L135,45" id="Shape" class="stroke-primary" stroke-width="3" stroke-linecap="round" stroke-linejoin="round"></path>
            <path d="M128,37.9 L128.7,38.6" id="Shape" class="stroke-primary" stroke-width="3" stroke-linecap="round" stroke-linejoin="round"></path>
            <path d="M136.1,41.6 L139.5,45" id="Shape" class="stroke-primary" stroke-width="3" stroke-linecap="round" stroke-linejoin="round"></path>
        </g>
    </g>
</svg>
